!!!COM: Claude Debussy
!!!CNT: Francais
!!!TXO: Francais
!!!OPR: Cinq Poe2mes de Baudelaire
!!!ONM: No. 1
!!!OTL: Le Balcon
!!!LYR: Charles Baudelaire
!!!ENC: Jacob Pegg
!!!YOR: Claude Debussy: Songs 1880-1904, Edited by Rita Benton
!!!YOR: New York: Dover publications, inc., 1981
!!!YOR: ISBN 0-486-24131-9
!!!ODT: 1888/
!!NB: Vocal melody and text only encoded.
!!NB: First instance of melodic material only encoded.
**kern	**silbe
*clef G2	*
*k[]	*
*M4/4	*
*MM[allegro]	*
!! created: 6/29/03 17:26
=4	=4
4r	.
{4gg	{Me\-
8ee	-re
8cc	des
8g	sou-
8a	-ve-
=5	=5
8b}	-nirs,}
16r	.
{16b	{mai^-
[4dd	-tres-
8dd]	|
8cc	-se
8g	des
8e	mai^-
=6	=6
[2g#	-tres-
8g#]}	-ses,}
8r	.
4r	.
=7	=7
{(4gn	{O^
4b)}	toi,}
8r	.
{8a	{tous
8e	mes
8c	plai-
=8	=8
4d#}	-sirs!}
8r	.
{8d#	{o^
8e	toi,
8a	tous
8c	mes
8ee	de-
=9	=9
[1dd#	-voirs!
=10	=10
4dd#]}	|}
4r	.
2r	.
=11	=11
4r	.
{4g#	{Tu
8a	te
8a	rap-
8a#	-pel-
8a#	-le-
=12	=12
6b	-ras
6ff#	la
6ee	beau-
6cc#	-te/
6b	des
6g#	ca-
=13	=13
4a	-res-
4c}	-ses,}
4r	.
{(8c	{La
8c	dou-
=14	=14
4c	-ceur
8f	du
8d	fo-
6a)	-yer
(6a	et
6cc	le
=15	=15
6b	char-
6cc	-me
6ee	des
4aa)}	soirs.}
4r	.
=16	=16
4r	.
{4gg	{Me^-
8ee	-re
8cc	des
8g	sou-
8a	-ve-
=17	=17
8b}	-nirs,}
16r	.
{16b	{mai^-
[4dd	-tres-
8dd]	|
8cc	-se
8g	des
8e	mai^-
=18	=18
2.g#	-tres-
4gn	|
=19	=19
4g}	-ses,}
4r	.
2r	.
=20	=20
1r	.
=21	=21
4r	.
{4d	{Les
8d	soirs
8d	il-
8d	-lu-
8d	-mi-
=22	=22
4d	-ne/s
(8e	par
8f#	l'ar-
4a	-deur
8a	du
8a	char-
=23	=23
2.a#)}	-bon,}
4r	.
=24	=24
1r	.
=25	=25
6r	.
{6b-	{Et
6b-	les
6cc	soirs
6cc	au
6cc	bal-
=26	=26
4b-}	-con,}
8r	.
{(8b-	{voi-
8cc	-le/s
8dd	du
8ee	va-
8ee#	-peur
=27	=27
[2ff#)	ro-
4ff#]}	-se.}
4r	.
=28	=28
{3ff#	{Que
6dd#	ton
6ee	sein
6b	m'e/-
6g	-tait
=29	=29
2a#}	doux!}
{4a#	{que
4a#	ton
=30	=30
2b	coeur
4g	m'e/-
4e	-tait
=31	=31
2e}	bon!}
2r	.
=32	=32
1r	.
=33	=33
2r	.
2r	.
=34	=34
4r	.
{4d	{Nous
4d	a-
4d	-vons
=35	=35
4.d#	dit
8d#	sou-
[2a	-vent
=36	=36
2.a]}	|}
{4a	{d'im-
=37	=37
4a#	-pe/-
4a#	-ris-
4b	-sa-
4dd	-bles
=38	=38
2a#	cho-
4d}	-ses}
4r	.
=39	=39
1r	.
=40	=40
4r	.
{4d	{Les
8d	soirs
8d	il-
8d	-lu-
8d	-mi-
=41	=41
4d	-ne/s
8d	par
8d	l'ar-
4d	-deur
8d	du
8d	char-
=42	=42
4d}	-bon.}
4r	.
2r	.
=43	=43
*k[f#c#g#d#a#]	*
1r	.
=44	=44
2r	.
2r	.
=45	=45
4r	.
{(4ff#	{Que
4dd#	les
4f#	so-
=46	=46
8an	-leils
8b	sont
[4b#)	beaux
(12b#]	|
12a#	par
12g#	les
12d#	chau-
12c##	-des
12d#	soi-
=47	=47
4e)}	-re/es!}
{8e	{Que
8f#	l'es-
4g#	-pa-
8a#	-ce est
8cc#	pro-
=48	=48
4ee}	-fond!}
8r	.
{8a#	{que
8g#	le
8e	coeur
8d#	est
8c#	puis-
=49	=49
4B#}	-sant!}
4r	.
2r	.
=50	=50
4r	.
{4a-	{En
8a-	me
8a-	pen-
8a-	-chant
8a-	vers
=51	=51
4gn}	toi,}
{[4ggn	{rei-
8ggn]	|
8ee-	-ne
12b-	des
12gn	a-
12e-	-do-
=52	=52
[4gn	-re/-
8gn]}	-es,}
8r	.
4r	.
{(8gn	{Je
8gn	cro-
=53	=53
4f#	-yais
8en	res-
8dn	-pi-
[4an	-rer
(12an]	|
12a#	le
12b	par-
=54	=54
2ccn)	-fum
([4ddn	de
12ddn]	|
12ee	|
12ee#	ton
=55	=55
2ff#)}	sang.}
2r	.
!! 56-58 repeat material	
!! 59-63 voice tacit	
=64	=64
4r	.
*k[b-]	*
*MM71	*
!! Andantino, dotted quarter
{4c	{La
8c	nuit
8c	s'e/-
8c	-pais-
8c	-sis-
=65	=65
8c	-sait
8c	ain-
4.e	-si
8e	qu'u-
8e	-ne
8e	cloi-
=66	=66
4d}	-son,}
4r	.
2r	.
=67	=67
{4b-	{Et
4cc	mes
4dd-	yeux
8cc	dans
8dd-	le
=68	=68
4ddn	noir
(12cc	de-
12b-)	|
12f#	vi-
4d	-naient
8e	tes
8f#	pru-
=69	=69
2a	-nel-
4fn}	-les}
4r	.
=70	=70
8r	.
{8e#	{Et
8f#	je
8g#	bu-
4.a	-vais
8e#	ton
=71	=71
4e#	souf-
(8d#	|
8dn)	|
4c#}	-fle.}
4r	.
=72	=72
8r	.
{4a	{O
8a	dou-
2b-}	-ceur,}
=73	=73
8r	.
{4a	{o^
8a	poi-
2dd}	-son!}
=74	=74
{(4dd	{Et
4dd#	tes
4e#	pieds
8f#	s'en-
8g#	-dor-
=75	=75
4a)	-maient
(8bn	dans
8cc#	mes
[4cc#	mains
12cc#]	|
12bn	fra-
12a	-ter-
=76	=76
[1g#)	-nel-
=77	=77
4g#]}	-les,}
4r	.
2r	.
!! 78-80 repeat of 64-66	
!!81-87 voice tacit	
=88	=88
*k[f#c#g#]	*
8r	.
{4e	{Je
8e	sais
4d#	l'art
8f#	d'e/-
8a	-vo-
=89	=89
12ccn	-quer
12ccn	les
12cc#	mi-
12ee	-nu-
12dd	-tes
12dd#	heu-
4ff#	-reu-
4g#}	-ses,}
=90	=90
8r	.
{8f#	{Et
8g#	re-
8a	-vis
8a#	mon
8b	pas-
8dd	-se/
8ff#	blot-
=91	=91
8ggn	-ti
8ee	dans
8b	tes
8gn	ge-
4gn}	-noux.}
4r	.
=92	=92
2r	.
{[4c#	{Car
12c#]	|
12e	a\
12e#	quoi
=93	=93
(12f#	bon
12g#)	|
12a#	cher-
12b	-cher
12cc#	tes
12dd	beau-
12ee-	-te/s
12ccn	lan-
12gn	-go-
6fn	-reu-
12e-}	-ses}
=94	=94
4r	.
8r	.
{8en	{Ail-
4fn	-leurs
12f#	qu'en
12gn	ton
12b-	cher
=95	=95
4b-	corps
4e	et
4g#	qu'en
4e	ton
=96	=96
2b	coeur
4a#	|
4gn	si
=97	=97
2.b}	doux?}
4r	.
!! 98-99 same as 88-89
!!100-103 voice tacit	
=104	=104
*k[]	*
*M4/4	*
2r	.
8r	.
{4d	{Ces
8d	ser-
=105	=105
4d}	-ments,}
4r	.
8r	.
{4b	{Ces
8g#	par-
=106	=106
4dd}	-fums,}
4r	.
2r	.
=107	=107
6r	.
{6b-	{ces
6bn	bai-
6dd	-sers
6cc	in-
6cc#	-fi-
=108	=108
*MM[andantino]	*
2.ee}	-nis,}
4r	.
=109	=109
4r	.
{4c#	{Re-
4d	-nai^-
4e	-tront~
=110	=110
8e#	~ils
8f#	d'un
2a#	gouffre
8g#	in-
8f#	-ter-
=111	=111
4fn	-dit
8fn	a\
8fn	nos
[4f#	son-
8f#]}	-des}
8r	.
=112	=112
2r	.
{(4.b	{Com-
8b	-me
=113	=113
2b	mon-
4b	-tent
4cc#	au
=114	=114
[2ee)	ciel
(8ee]	|
4dd#	les
8ee	so-
=115	=115
4ff	-leils
8cc	ra-
8aa	-jeu-
4.aa)}	-nis}
8r	.
=116	=116
4r	.
{4gg	{A-
4ee	-pre\s
4g	s'e^-
=117	=117
8g#	-tre
8a	la-
2cc#	-ve/s
8a	au
8e	|
=118	=118
2f)	fond
(2g	des
=119	=119
2a	mers
2b	pro-
=120	=120
[1gg)	-fon-
=121	=121
*MM[andante]	*
2gg]	|
2g	|
=122	=122
4g}	-des?}
4r	.
2r	.
=123	=123
4r	.
{2f	{O^
4f#	ser-
=124	=124
2g}	-ments!}
2r	.
=125	=125
4r	.
{2a-	{o^
4an	par-
=126	=126
2b-}	-fums!}
2r	.
=127	=127
6r	.
{6b-	{o^
6bn	bai-
6dd	-sers
6cc	in-
6cc#	-fi-
=128	=128
[1ee	-nis!
=129	=129
2ee]}	|}
2r	.
*-	*-
